!!!!SEGMENT: pl-kk--kk-i-329--008_costanzi-giovanni-battista--confitebor-sanctum.krn
!!!cenid: 17xx:1927
!!!COM: Costanzi, Giovanni Battista
!!!COM-rismID:
!!!CDT: 1704-1778
!!!CNT: Italian
!!!OPR: Confitebor
!!!OTL: Sanctum
!!!OMV: 008
!!!PDT:
!!!AGN: Sacred
!!!SMS-siglum: PL-Kk
!!!SMS-shelfmark: Kk.I.329
!!!SMS-shelfwork: 001-008 M
!!!SMS-variant:
!!!SMS-altvar:
!!!NIFC-rismSourceID: 1001143621
!!!NIFC-islandoraID: pl-kk:5543
!!!URL-pdf-islandora: https://repozytorium.nifc.pl/islandora/object/pl-kk%3A5543/datastream/PDF/view
!!!URL-scan: https://polish.musicsources.pl/pl/lokalizacje/galeria/rekopisy/5948 @EN{Scan on Polish Music Herritage in Open Access Website} @PL{Skany w portalu Dziedzictwo Muzyki Polskiej w otwartym dostępie}
!!!ONB-nifc: UWAGA: części Confitebor: 1. Confitebor, 2. Magna opera, 3. Confessio, 4. Memoriam fecit, 5. Memor erit, 6. Fidelia omnia, 7. Redemptionem, 8. Sanctum, 9. Intellectus bonus, 10. Gloria Patri, 11. Sicut erat, 12. Amen
!!!AIN: 2 alto 2 empty 1 organ 1 tenor 2 vox
!!!key:
**kern	**fba	**kern	**kern	**kern	**kern	**kern	**text	**kern	**text	**kern	**text
*part8	*	*part7	*part6	*part5	*part4	*part3	*part3	*part2	*part2	*part1	*part1
*	*	*group2	*group2	*group2	*group2	*group1	*	*group1	*	*group1	*
*staff8	*	*staff7	*staff6	*staff5	*staff4	*staff3	*staff3	*staff2	*staff2	*staff1	*staff1
*Iorgan	*	*Iempty	*Itenor	*Ialto	*Ivox	*Iempty	*	*Ialto	*	*Ivox	*
*I"Organo.	*	*I"Baſso di Ripieno	*I"Tenore di Ripieno	*I"Alto di Ripieno	*I"Canto di Ripieno	*I"Baſso di Concerto	*	*I"Alto di Concerto	*	*I"Canto di Concerto	*
*I'org	*	*I'B rip	*I'T rip	*I'A rip	*I'S rip	*I'B conc	*	*I'A conc	*	*I'S conc	*
*clefF4	*	*clefF4	*clefC4	*clefC3	*clefC1	*clefF4	*	*clefC3	*	*clefC1	*
*	*	*	*	*	*	*	*	*	*	*	*
*k[f#c#]	*	*k[f#c#]	*k[f#c#]	*k[f#c#]	*k[f#c#]	*k[f#c#]	*	*k[f#c#]	*	*k[f#c#]	*
*A:	*	*A:	*A:	*A:	*A:	*A:	*	*A:	*	*A:	*
*M4/4	*	*M4/4	*M4/4	*M4/4	*M4/4	*M4/4	*	*M4/4	*	*M4/4	*
*met(c)	*	*met(c)	*met(c)	*met(c)	*met(c)	*met(c)	*	*met(c)	*	*met(c)	*
=1	=1	=1	=1	=1	=1	=1	=1	=1	=1	=1	=1
!LO:TX:a:t=B.o	!	!	!	!	!	!	!	!	!	!	!
!LO:TX:a:t=Moderato	!	!LO:TX:a:t=Sanctum et terribile Tacet	!LO:TX:a:t=Sanctum Tacet	!LO:TX:a:t=Sanctum Tacet	!LO:TX:a:t=Sanctum Tacet	!LO:TX:a:t=a 3.e\nModerato	!	!	!LO:TX:a:t=a 3.e\nModerato	!LO:TX:a:t=Moderato	!
!LO:TX:a:t=a 3.e Sanctum	!	!	!	!	!	!	!	!	!	!LO:TX:a:t=P:problem=znaki f# cc#	!
!	!	!	!	!	!	!	!	!LO:TX:b:t=3	!	!LO:TX:b:t=3	!
4A\	.	1ryy	1ryy	1ryy	1ryy	4A|\	San-	0r	.	0r	.
4E\	#3	.	.	.	.	4E|\	-ctum	.	.	.	.
4C#\	6	.	.	.	.	4C#|\	et	.	.	.	.
4E\	.	.	.	.	.	4E|\	ter-	.	.	.	.
=2	=2	=2	=2	=2	=2	=2	=2	=2	=2	=2	=2
8A\L	.	1ryy	1ryy	1ryy	1ryy	8A\	-ri-	.	.	.	.
16G#X\L	.	.	.	.	.	16G#X\LL	-bi-	.	.	.	.
16F#\JJ	.	.	.	.	.	16F#\JJ	.	.	.	.	.
16E\LL	.	.	.	.	.	16E\LL	-le	.	.	.	.
16D\	.	.	.	.	.	16D\JJ	.	.	.	.	.
16C#\	.	.	.	.	.	16C#/LL	ter-	.	.	.	.
16BB\JJ	.	.	.	.	.	16BB/JJ	.	.	.	.	.
8.C#/L	.	.	.	.	.	8.C#/	-ri-	.	.	.	.
16BB/Jk	.	.	.	.	.	16BB/	-bi-	.	.	.	.
4AA/	.	.	.	.	.	4AA/	-le	.	.	.	.
!	!	!	!	!	!	!LO:LB:g=original	!	!	!	!	!
=3	=3	=3	=3	=3	=3	=3	=3	=3	=3	=3	=3
4D/	.	1ryy	1ryy	1ryy	1ryy	4D/	no-	1r	.	1r	.
4C#/	.	.	.	.	.	4C#/	-men	.	.	.	.
2BB/	7	.	.	.	.	2BB/	e-	.	.	.	.
.	#6	.	.	.	.	.	.	.	.	.	.
!LO:LB:g=original	!	!	!	!	!	!	!	!	!	!	!
=4	=4	=4	=4	=4	=4	=4	=4	=4	=4	=4	=4
!LO:TX:a:t=a 2.e	!	!	!	!	!	!	!	!	!	!	!
4AA/	.	1ryy	1ryy	1ryy	1ryy	4AA/	-ius	8r	.	8r	.
.	.	.	.	.	.	.	.	8a\	I-	8cc#\	I-
8r	.	.	.	.	.	4r	.	[4cc#\	-ni-	[4ee\	-ni-
8A\	.	.	.	.	.	.	.	.	.	.	.
8E\L	4	.	.	.	.	2r	.	8cc#\]	.	8ee\]	.
8E\	.	.	.	.	.	.	.	16b\	-ti-	16dd\	-ti-
.	.	.	.	.	.	.	.	16a\	-u(m)	16cc#\	-um
8E\	#3	.	.	.	.	.	.	8.b\	Sa-	8dd\	Sa-
8E\J	.	.	.	.	.	.	.	.	.	8dd\	-pi-
.	.	.	.	.	.	.	.	16b\	-pi-	.	.
!	!	!	!	!	!	!	!	!LO:LB:g=original	!	!LO:LB:g=original	!
=5	=5	=5	=5	=5	=5	=5	=5	=5	=5	=5	=5
!	!	!	!	!	!	!LO:TX:b:t=1	!	!	!	!	!
4A\	.	1ryy	1ryy	1ryy	1ryy	1r	.	8b\	-en-	8dd\	-en-
.	.	.	.	.	.	.	.	8a\	-ti[a]e	8cc#\	-tiae
8r	.	.	.	.	.	.	.	[4e\	ti-	[4cc#\	ti-
8AA/	.	.	.	.	.	.	.	.	.	.	.
*	*below	*	*	*	*	*	*	*	*	*	*
8BB/L	4 9	.	.	.	.	.	.	8e\]	.	8cc#\]	.
8BB/	.	.	.	.	.	.	.	16d\LL	-mor	16b\LL	-mor
.	.	.	.	.	.	.	.	16c#\JJ	.	16a\JJ	.
8BB/	5 8	.	.	.	.	.	.	8d\	ti-	8b\	ti-
8BB/J	.	.	.	.	.	.	.	8d\	-mor	8b\	-mor
=6	=6	=6	=6	=6	=6	=6	=6	=6	=6	=6	=6
8C#/L	7 9	1ryy	1ryy	1ryy	1ryy	2r	.	8d\	do-	8b\	Do-
8C#/	.	.	.	.	.	.	.	16c#\LL	-mi-	16a\LL	-mi-
.	.	.	.	.	.	.	.	16B\JJ	.	16g#X\JJ	.
8C#/	6 8	.	.	.	.	.	.	4c#\	-ni	4a\	-ni
8C#/J	.	.	.	.	.	.	.	.	.	.	.
4AA/	.	.	.	.	.	8A\	San-	2r	.	2r	.
.	.	.	.	.	.	8c#\	-ctu(m)	.	.	.	.
8r	.	.	.	.	.	8e\	et	.	.	.	.
8A\	.	.	.	.	.	8A\	ter-	.	.	.	.
=7	=7	=7	=7	=7	=7	=7	=7	=7	=7	=7	=7
!	!	!	!	!	!	!	!	!LO:TX:b:t=1	!	!LO:TX:b:t=1	!
8E\L	.	1ryy	1ryy	1ryy	1ryy	8E\	-ri-	1r	.	1r	.
16G#X\L	.	.	.	.	.	16G#X\LL	-bi-	.	.	.	.
16A\JJ	.	.	.	.	.	16A\JJ	.	.	.	.	.
8B\L	.	.	.	.	.	8B\	-le	.	.	.	.
8E\J	.	.	.	.	.	8E\	ter-	.	.	.	.
!LO:PB:g=original	!	!	!	!	!	!	!	!	!	!	!
!LO:TX:t=P:problem=mixed beam	!	!	!	!	!LO:PB:g=original	!	!	!	!	!	!
8C#/L	.	.	.	.	.	8AA/	-ri-	.	.	.	.
16B\L	.	.	.	.	.	16B\	-bi-	.	.	.	.
16c#\JJ	.	.	.	.	.	16c#\	-le	.	.	.	.
16B\LL	.	.	.	.	.	16B\LL	no-	.	.	.	.
16A\	.	.	.	.	.	16A\JJ	.	.	.	.	.
16G#X\	.	.	.	.	.	16G#X\LL	-men	.	.	.	.
16F#\JJ	.	.	.	.	.	16F#\JJ	.	.	.	.	.
!	!	!	!	!	!	!	!	!	!	!LO:LB:g=original	!
=8	=8	=8	=8	=8	=8	=8	=8	=8	=8	=8	=8
16G\LL	.	1ryy	1ryy	1ryy	1ryy	16G#X\LL	e-	4r	.	8r	.
16F#\J	.	.	.	.	.	16F#\JJ	.	.	.	.	.
8E\J	.	.	.	.	.	8E\	-ius	.	.	8b\	I-
8E\L	.	.	.	.	.	4r	.	8r	.	[4ee\	-ni-
8D\J	.	.	.	.	.	.	.	8g#X\	In-	.	.
*2\right	*above	*	*	*	*	*	*	*	*	*	*
!	!	!	!	!	!	!	!LO:LB:g=original	!	!	!	!
2B\	4	.	.	.	.	2r	.	8f#\	-i-	8ee\]	.
.	3	.	.	.	.	.	.	16f#\	-ti-	16dd\	-ti-
.	.	.	.	.	.	.	.	16f#\	-um	16cc#\	-um
.	.	.	.	.	.	.	.	8f#\	Sa-	8dd\	Sa-
.	.	.	.	.	.	.	.	8b\	-pi-	8dd\	-pi-
=9	=9	=9	=9	=9	=9	=9	=9	=9	=9	=9	=9
!	!	!	!	!	!	!LO:TX:b:t=1	!	!	!	!	!
2E#X\	7	1ryy	1ryy	1ryy	1ryy	1r	.	16b\	-en-	16dd\	-en-
.	4	.	.	.	.	.	.	16a#X\	-ti[a]e	16cc#\	-ti-
.	.	.	.	.	.	.	.	8b\	.	8dd\	-[a]e
.	.	.	.	.	.	.	.	4b\	ti-	4dd\	ti-
8E#\L	.	.	.	.	.	.	.	8an\	-mor	8cc#\L	-mor
8G\	.	.	.	.	.	.	.	4f#\	do-	16ff#\L	.
.	.	.	.	.	.	.	.	.	.	16dd\JJ	.
!	!	!	!	!	!	!	!	!	!	!LO:LB:g=original	!
.	.	.	.	.	.	.	.	.	.	8qqa/	.
8F#X\	.	.	.	.	.	.	.	.	.	8.b\	Do-
8C#\J	#3	.	.	.	.	.	.	8e#X\	-mi-	.	.
.	.	.	.	.	.	.	.	.	.	16a\	-mi-
!	!	!	!	!	!	!	!	!LO:LB:g=original	!	!	!
=10	=10	=10	=10	=10	=10	=10	=10	=10	=10	=10	=10
8F#\L	.	1ryy	1ryy	1ryy	1ryy	8F#\	San-	4f#\	-ni	4a\	-ni
8F#\	.	.	.	.	.	8A\	-ctu(m)	.	.	.	.
8F#\	.	.	.	.	.	8c#\	et	4r	.	4r	.
8F#\J	.	.	.	.	.	8A\	ter-	.	.	.	.
!LO:LB:g=original	!	!	!	!	!	!LO:LB:g=original	!	!	!	!	!
8A#X\L	.	.	.	.	.	8.F#\	-ri-	2r	.	8ff#\	San-
8A#\	.	.	.	.	.	.	.	.	.	8cc#\	-ctu(m)
.	.	.	.	.	.	16F#\	-bi-	.	.	.	.
8A#\	.	.	.	.	.	4F#\	-le	.	.	8f#/	et
8A#\J	.	.	.	.	.	.	.	.	.	8ee\	ter-
=11	=11	=11	=11	=11	=11	=11	=11	=11	=11	=11	=11
*	*	*	*	*	*	*2\right	*	*	*	*	*
8B\L	4	1ryy	1ryy	1ryy	1ryy	2B\	ter-	8b\	San-	8.ee\	-ri-
8B\	.	.	.	.	.	.	.	8f#\	-ctum	.	.
.	.	.	.	.	.	.	.	.	.	16dd#X\	-bi-
8B\	#3	.	.	.	.	.	.	8B/	et	4dd#\	-le
8B\J	.	.	.	.	.	.	.	8a\	ter-	.	.
!	!	!	!	!	!	!LO:N:vis=8	!	!	!	!	!
8E\L	4	.	.	.	.	4E\	-ri-	8a\	-ri-	8ee\	San-
8E\	.	.	.	.	.	.	.	8g#X\	-bi-	8b\	-ctu(m)
!	!	!	!	!	!	!LO:N:vis=8	!	!	!	!	!
8E\	#3	.	.	.	.	4E\	-bi-	4g#\	-le	8e/	et
8E\J	.	.	.	.	.	.	.	.	.	8ddn\	ter-
!	!	!	!	!	!	!	!	!	!	!LO:LB:g=original	!
=12	=12	=12	=12	=12	=12	=12	=12	=12	=12	=12	=12
8A\L	.	1ryy	1ryy	1ryy	1ryy	2A\	-le	2r	.	8.dd\	-ri-
8A\	.	.	.	.	.	.	.	.	.	.	.
.	.	.	.	.	.	.	.	.	.	16cc#\	-bi-
8A\	.	.	.	.	.	.	.	.	.	4cc#\	-le
8A\J	.	.	.	.	.	.	.	.	.	.	.
4A\	.	.	.	.	.	4A\	no-	4a\	no-	4cc#\	no-
4D\	.	.	.	.	.	4D\	-men	8b\	-men	8dd\	-men
.	.	.	.	.	.	.	.	8a\	.	8cc#\	e-
!	!	!	!	!	!	!	!	!LO:LB:g=original	!	!	!
=13	=13	=13	=13	=13	=13	=13	=13	=13	=13	=13	=13
4E\	#	1ryy	1ryy	1ryy	1ryy	4E\	e-	4g#X\	e-	4b\	-ius
!LO:TX:t=P:problem=mixed beam	!	!	!	!	!	!	!	!	!	!	!
8AA/L	.	.	.	.	.	4AA/	-ius	8a\	-ius	8cc#\	i-
8A\J	.	.	.	.	.	.	.	8a\	in	8cc#\	-ni-
2E\	#	.	.	.	.	2r	.	8g#X\	i-	8b\	-ti-
.	.	.	.	.	.	.	.	8g#\	-tium	8b\	-um
.	.	.	.	.	.	.	.	8g#\	Sa-	8a\	sa-
.	.	.	.	.	.	.	.	8a\	-pi-	8cc#\	-pi-
!	!	!	!	!	!	!	!	!	!	!LO:PB:g=original	!
=14	=14	=14	=14	=14	=14	=14	=14	=14	=14	=14	=14
4E\	7	1ryy	1ryy	1ryy	1ryy	2r	.	4b\	-en-	4dd\	-en-
4AA/	.	.	.	.	.	.	.	8a\	-ti-	4cc#\	-tiae
.	.	.	.	.	.	.	.	8a\	-ae	.	.
4D\	.	.	.	.	.	4D\	ti-	4d\	ti-	4ff#\	ti-
4A\	.	.	.	.	.	4A\	-mor	4c#\	-mor	4ee\	-mor
!LO:LB:g=original	!	!	!	!	!	!LO:LB:g=original	!	!	!	!	!
=15	=15	=15	=15	=15	=15	=15	=15	=15	=15	=15	=15
4E\	.	1ryy	1ryy	1ryy	1ryy	4E\	ti-	8d\L	ti-	4dd\	ti-
.	.	.	.	.	.	.	.	8g#X\J	.	.	.
4A\	.	.	.	.	.	4A\	-mor	4a\	-mor	8cc#\L	-mor
.	.	.	.	.	.	.	.	.	.	8dd\J	.
!	!	!	!	!	!	!	!	!LO:LB:g=original	!	!	!
2E\	.	.	.	.	.	4.E\	do-	4a\	do-	4cc#\	Do-
.	.	.	.	.	.	.	.	4g#X\	-mi-	4b\	-mi-
.	.	.	.	.	.	8E\	-mi-	.	.	.	.
=16	=16	=16	=16	=16	=16	=16	=16	=16	=16	=16	=16
!LO:TX:b:t=Siegue a 3e.	!	!	!	!	!	!LO:TX:b:t=Siegue a 3e.	!	!	!	!	!
1AA;	.	1ryy	1ryy	1ryy	1ryy	1AA	-ni	1a	-ni	1a	-ni
==	==	==	==	==	==	==	==	==	==	==	==
*-	*-	*-	*-	*-	*-	*-	*-	*-	*-	*-	*-
!!!system-decoration: [g1][g2]s8
!!!RDF**kern: | = vertical stroke
!!!ENC: Marta Lawrence
!!!END: 2021-02-15
!!!ENC: Andrzej Gręziak
!!!END: 2021-02-03
